icons/ghost.svg

<svg width="24" height="24" viewBox="0 0 24 24" fill="none" xmlns="http://www.w3.org/2000/svg">
<path fill-rule="evenodd" clip-rule="evenodd" d="M12 3C8.19026 3 5 6.29989 5 10.5V19.5C5 20.3284 5.67157 21 6.5 21C7.22452 21 7.83108 20.4853 7.96998 19.8011C8.06459 19.335 8.47439 19 8.94999 19H9.55001C10.0256 19 10.4354 19.335 10.53 19.8011C10.6689 20.4853 11.2755 21 12 21C12.7245 21 13.3311 20.4853 13.47 19.8011C13.5646 19.335 13.9744 19 14.45 19H15.05C15.5256 19 15.9354 19.335 16.03 19.8011C16.1689 20.4853 16.7755 21 17.5 21C18.3284 21 19 20.3284 19 19.5V10.5C19 6.29989 15.8097 3 12 3ZM3 10.5C3 5.31127 6.97319 1 12 1C17.0268 1 21 5.31127 21 10.5V19.5C21 21.433 19.433 23 17.5 23C16.3839 23 15.3907 22.478 14.75 21.665C14.1093 22.478 13.1161 23 12 23C10.8839 23 9.89068 22.478 9.25 21.665C8.60933 22.478 7.61611 23 6.5 23C4.567 23 3 21.433 3 19.5V10.5ZM7 9C7 7.89543 7.89543 7 9 7C10.1046 7 11 7.89543 11 9C11 10.1046 10.1046 11 9 11C7.89543 11 7 10.1046 7 9ZM13 9C13 7.89543 13.8954 7 15 7C16.1046 7 17 7.89543 17 9C17 10.1046 16.1046 11 15 11C13.8954 11 13 10.1046 13 9Z" fill="black"/>
</svg>

<svg
  width="24"
  height="24"
  viewBox="0 0 24 24"
  xmlns="http://www.w3.org/2000/svg"
>
  <path
    fill-rule="evenodd"
    clip-rule="evenodd"
    d="M12 3c-3.81 0-7 3.3-7 7.5v9a1.5 1.5 0 0 0 2.97.301A1 1 0 0 1 8.95 19h.6a1 1 0 0 1 .98.801 1.5 1.5 0 0 0 2.94 0 1 1 0 0 1 .98-.801h.6a1 1 0 0 1 .98.801A1.5 1.5 0 0 0 19 19.5v-9C19 6.3 15.81 3 12 3zm-9 7.5C3 5.311 6.973 1 12 1s9 4.311 9 9.5v9a3.5 3.5 0 0 1-6.25 2.165A3.492 3.492 0 0 1 12 23a3.492 3.492 0 0 1-2.75-1.335A3.5 3.5 0 0 1 3 19.5v-9zM7 9a2 2 0 1 1 4 0 2 2 0 0 1-4 0zm6 0a2 2 0 1 1 4 0 2 2 0 0 1-4 0z"
  />
</svg>
